#define smblk_width 48
#define smblk_height 32
static const uint8_t smblk_bits[] = {
   0xf8, 0xff, 0xff, 0xff, 0xff, 0x1f, 0xfc, 0xff, 0x49, 0xf2, 0xff, 0x3f,
   0xfe, 0x3f, 0xff, 0x9f, 0xff, 0x7f, 0xff, 0xef, 0xbf, 0xff, 0xfe, 0xff,
   0xff, 0xfb, 0x1f, 0xff, 0xfb, 0xff, 0xff, 0xff, 0xff, 0xff, 0xff, 0xff,
   0x1f, 0x30, 0x30, 0x08, 0x30, 0xf0, 0xcf, 0x87, 0x87, 0x63, 0x87, 0xf7,
   0xe7, 0xe7, 0xcf, 0x67, 0xe7, 0xf7, 0xf7, 0xe0, 0xdf, 0x67, 0xe7, 0xf7,
   0xf7, 0xf0, 0xdc, 0x6f, 0xf7, 0xf0, 0xf7, 0x77, 0xd8, 0x7f, 0x77, 0xf8,
   0xe7, 0x77, 0xdc, 0x7f, 0x77, 0xf0, 0x0f, 0xf7, 0xde, 0x7d, 0xf7, 0xf6,
   0xef, 0xe7, 0xcf, 0x79, 0xe7, 0xf7, 0xe7, 0xc3, 0xc7, 0x79, 0xc7, 0xf7,
   0x07, 0x18, 0x10, 0x04, 0x10, 0xf0, 0xff, 0xff, 0xff, 0xff, 0xff, 0xff,
   0xfb, 0x9e, 0xf3, 0x3c, 0x71, 0xdf, 0x75, 0x8e, 0xf3, 0x38, 0x31, 0xae,
   0x3b, 0x84, 0xe1, 0x30, 0x31, 0xdc, 0x1f, 0x80, 0xc0, 0x20, 0x11, 0xf8,
   0x0f, 0x00, 0x8c, 0x00, 0x91, 0xf1, 0x87, 0x0c, 0x00, 0x08, 0x01, 0xe0,
   0xc3, 0x0e, 0x1e, 0x18, 0x81, 0xc3, 0xe1, 0x0f, 0x3f, 0x38, 0xc0, 0x87,
   0xff, 0xff, 0xff, 0xff, 0xff, 0xff, 0xff, 0xfb, 0x1f, 0xff, 0xfb, 0xff,
   0xff, 0xef, 0xbf, 0xff, 0xfe, 0xff, 0xfe, 0x3f, 0xff, 0x9f, 0xff, 0x7f,
   0xfc, 0xff, 0x49, 0xf2, 0xff, 0x3f, 0xf8, 0xff, 0xff, 0xff, 0xff, 0x1f };
