#define smwhte_width 48
#define smwhte_height 32
static const uint8_t smwhte_bits[] = {
   0x07, 0x00, 0x00, 0x00, 0x00, 0xe0, 0x03, 0x00, 0xb6, 0x0d, 0x00, 0xc0,
   0x01, 0xc0, 0x00, 0x60, 0x00, 0x80, 0x00, 0x10, 0x40, 0x00, 0x01, 0x00,
   0x00, 0x04, 0xe0, 0x00, 0x04, 0x00, 0x00, 0x00, 0x00, 0x00, 0x00, 0x00,
   0xe0, 0xcf, 0xcf, 0xf7, 0xcf, 0x0f, 0x30, 0x78, 0x78, 0x9c, 0x78, 0x08,
   0x18, 0x18, 0x30, 0x98, 0x18, 0x08, 0x08, 0x1f, 0x20, 0x98, 0x18, 0x08,
   0x08, 0x0f, 0x23, 0x90, 0x08, 0x0f, 0x08, 0x88, 0x27, 0x80, 0x88, 0x07,
   0x18, 0x88, 0x23, 0x80, 0x88, 0x0f, 0xf0, 0x08, 0x21, 0x82, 0x08, 0x09,
   0x10, 0x18, 0x30, 0x86, 0x18, 0x08, 0x18, 0x3c, 0x38, 0x86, 0x38, 0x08,
   0xf8, 0xe7, 0xef, 0xfb, 0xef, 0x0f, 0x00, 0x00, 0x00, 0x00, 0x00, 0x00,
   0x04, 0x61, 0x0c, 0xc3, 0x8e, 0x20, 0x8a, 0x71, 0x0c, 0xc7, 0xce, 0x51,
   0xc4, 0x7b, 0x1e, 0xcf, 0xce, 0x23, 0xe0, 0x7f, 0x3f, 0xdf, 0xee, 0x07,
   0xf0, 0xff, 0x73, 0xff, 0x6e, 0x0e, 0x78, 0xf3, 0xff, 0xf7, 0xfe, 0x1f,
   0x3c, 0xf1, 0xe1, 0xe7, 0x7e, 0x3c, 0x1e, 0xf0, 0xc0, 0xc7, 0x3f, 0x78,
   0x00, 0x00, 0x00, 0x00, 0x00, 0x00, 0x00, 0x04, 0xe0, 0x00, 0x04, 0x00,
   0x00, 0x10, 0x40, 0x00, 0x01, 0x00, 0x01, 0xc0, 0x00, 0x60, 0x00, 0x80,
   0x03, 0x00, 0xb6, 0x0d, 0x00, 0xc0, 0x07, 0x00, 0x00, 0x00, 0x00, 0xe0 };
